img/foundation-icons/fi-align-justify.svg

<?xml version="1.0" encoding="utf-8"?>
<!-- Generator: Adobe Illustrator 17.0.0, SVG Export Plug-In . SVG Version: 6.00 Build 0)  -->
<!DOCTYPE svg PUBLIC "-//W3C//DTD SVG 1.1//EN" "http://www.w3.org/Graphics/SVG/1.1/DTD/svg11.dtd">
<svg version="1.1" id="Layer_1" xmlns="http://www.w3.org/2000/svg" xmlns:xlink="http://www.w3.org/1999/xlink" x="0px" y="0px"
	 width="100px" height="100px" viewBox="0 0 100 100" enable-background="new 0 0 100 100" xml:space="preserve">
<g>
	<path d="M81.232,15.389H18.769c-1.882,0-3.407,1.525-3.407,3.407v3.143c0,1.881,1.525,3.407,3.407,3.407h62.463
		c1.881,0,3.407-1.525,3.407-3.407v-3.143C84.639,16.914,83.113,15.389,81.232,15.389z"/>
	<path d="M81.232,35.144H18.769c-1.882,0-3.407,1.525-3.407,3.407v3.143c0,1.881,1.525,3.407,3.407,3.407h62.463
		c1.881,0,3.407-1.525,3.407-3.407v-3.143C84.639,36.67,83.113,35.144,81.232,35.144z"/>
	<path d="M81.232,54.899H18.769c-1.882,0-3.407,1.525-3.407,3.407v3.143c0,1.881,1.525,3.407,3.407,3.407h62.463
		c1.881,0,3.407-1.525,3.407-3.407v-3.143C84.639,56.425,83.113,54.899,81.232,54.899z"/>
	<path d="M81.232,74.654H18.769c-1.882,0-3.407,1.525-3.407,3.407v3.143c0,1.881,1.525,3.407,3.407,3.407h62.463
		c1.881,0,3.407-1.525,3.407-3.407v-3.143C84.639,76.18,83.113,74.654,81.232,74.654z"/>
</g>
</svg>

<svg xmlns="http://www.w3.org/2000/svg" width="100" height="100" viewBox="0 0 100 100"><path d="M81.232 15.39H18.77a3.407 3.407 0 0 0-3.408 3.406v3.143a3.407 3.407 0 0 0 3.407 3.406H81.23a3.407 3.407 0 0 0 3.407-3.407v-3.144a3.407 3.407 0 0 0-3.408-3.407zM81.232 35.144H18.77a3.407 3.407 0 0 0-3.408 3.407v3.144A3.407 3.407 0 0 0 18.77 45.1H81.23a3.407 3.407 0 0 0 3.407-3.406V38.55a3.408 3.408 0 0 0-3.408-3.406zM81.232 54.9H18.77a3.407 3.407 0 0 0-3.408 3.406v3.143a3.407 3.407 0 0 0 3.407 3.406H81.23a3.407 3.407 0 0 0 3.407-3.407v-3.144A3.408 3.408 0 0 0 81.23 54.9zM81.232 74.654H18.77a3.407 3.407 0 0 0-3.408 3.407v3.144a3.407 3.407 0 0 0 3.407 3.407H81.23a3.407 3.407 0 0 0 3.407-3.406V78.06a3.408 3.408 0 0 0-3.408-3.406z"/></svg>
